X: 42114
T: Ward's
R: hornpipe
M: 4/4
K: Amajor
c/>d/|e/>c/A/>a/ g/>B/d/>f/|e/>A/c/>f/ e/>E/A/>c/|d/>F/B/>d/ c/>E/A/>c/|B/>E/G/>B/ e/>d/c/>d/|
e/>c/A/>a/ g/>B/d/>f/|e/>A/c/>f/ e/>E/A/>c/|d/>F/B/>d/ c/>E/A/>c/|B/>E/G/>B/ A:|
c/>d/|(3e/f/g/ a/>b/ c'/>a/g/>a/|f/>a/d/>f/ {f}ec/>e/|d/>f/B/>d/ c/>e/A/>c/|B/>e/ (3^d/e/f/ ec/>=d/|
(3e/f/g/ a/>b/ c'/>a/g/>a/|f/>a/d/>f/ e/>a/c/>e/|d/>F/B/>d/ c/>E/A/>c/|B/>E/G/>B/ A:|

